assets/img/icons/404.svg

<svg width="992" height="275" viewBox="0 0 992 275" fill="none" xmlns="http://www.w3.org/2000/svg">
<path d="M743.896 207.576V180.136L884.232 0.599981H926.568L787.408 180.136L767.416 173.864H986.544V207.576H743.896ZM896.384 275V207.576L897.56 173.864V114.28H934.408V275H896.384Z" fill="white"/>
<path d="M14.896 207.576V180.136L155.232 0.599981H197.568L58.408 180.136L38.416 173.864H257.544V207.576H14.896ZM167.384 275V207.576L168.56 173.864V114.28H205.408V275H167.384Z" fill="white"/>
<path d="M383.638 267C380.216 267 377.349 265.841 375.038 263.522C372.727 261.203 371.572 258.33 371.572 254.903V238.773H367.238C355.992 238.773 346.475 234.87 338.685 227.064C330.895 219.258 327 209.72 327 198.451V117.803C327 105.913 331.05 96.2198 339.149 88.7236C347.248 81.2277 356.611 77.4798 367.238 77.4798V48.3229C367.238 37.0532 371.133 27.5153 378.922 19.7092C386.712 11.9031 396.229 8 407.475 8H584.524C595.77 8 605.288 11.9031 613.077 19.7092C620.867 27.5153 624.762 37.0532 624.762 48.3229V77.4798C635.802 77.4798 645.268 81.3053 653.161 88.9563C661.054 96.6073 665 106.223 665 117.803V198.451C665 209.72 661.105 219.258 653.316 227.064C645.526 234.87 636.008 238.773 624.762 238.773H620.429V254.903C620.429 258.33 619.325 261.203 617.117 263.522C614.909 265.841 612.094 267 608.672 267C605.251 267 602.383 265.841 600.068 263.522C597.753 261.203 596.596 258.33 596.596 254.903V238.773H395.714V254.903C395.714 258.336 394.557 261.21 392.242 263.526C389.927 265.842 387.059 267 383.638 267ZM367.238 214.58H624.762C629.323 214.58 633.145 213.034 636.23 209.943C639.315 206.851 640.858 203.021 640.858 198.451V117.803C640.858 113.233 639.315 109.402 636.23 106.311C633.145 103.219 629.323 101.674 624.762 101.674C620.202 101.674 616.379 103.219 613.294 106.311C610.209 109.402 608.667 113.233 608.667 117.803V178.288H383.333V117.803C383.333 113.233 381.791 109.402 378.706 106.311C375.621 103.219 371.798 101.674 367.238 101.674C362.678 101.674 358.855 103.219 355.77 106.311C352.685 109.402 351.143 113.233 351.143 117.803V198.451C351.143 203.021 352.685 206.851 355.77 209.943C358.855 213.034 362.678 214.58 367.238 214.58ZM407.476 154.095H584.525V117.803C584.525 111.268 586 105.303 588.951 99.9058C591.901 94.5086 595.791 89.9903 600.62 86.351V48.3229C600.62 43.7529 599.077 39.9221 595.992 36.8306C592.907 33.7392 589.085 32.1934 584.525 32.1934H407.476C402.916 32.1934 399.093 33.7392 396.008 36.8306C392.923 39.9221 391.381 43.7529 391.381 48.3229V86.351C396.209 89.9903 400.099 94.5086 403.05 99.9058C406 105.303 407.476 111.268 407.476 117.803V154.095Z" fill="white"/>
</svg>

<svg width="992" height="275" fill="none" xmlns="http://www.w3.org/2000/svg"><path d="M743.896 207.576v-27.44L884.232.6h42.336l-139.16 179.536-19.992-6.272h219.128v33.712H743.896zM896.384 275v-67.424l1.176-33.712V114.28h36.848V275h-38.024zM14.896 207.576v-27.44L155.232.6h42.336L58.408 180.136l-19.992-6.272h219.128v33.712H14.896zM167.384 275v-67.424l1.176-33.712V114.28h36.848V275h-38.024zm216.254-8c-3.422 0-6.289-1.159-8.6-3.478s-3.466-5.192-3.466-8.619v-16.13h-4.334c-11.246 0-20.763-3.903-28.553-11.709-7.79-7.806-11.685-17.344-11.685-28.613v-80.648c0-11.89 4.05-21.583 12.149-29.08 8.099-7.495 17.462-11.243 28.089-11.243V48.323c0-11.27 3.895-20.808 11.684-28.614C386.712 11.903 396.229 8 407.475 8h177.049c11.246 0 20.764 3.903 28.553 11.71 7.79 7.805 11.685 17.343 11.685 28.613V77.48c11.04 0 20.506 3.825 28.399 11.476C661.054 96.607 665 106.223 665 117.803v80.648c0 11.269-3.895 20.807-11.684 28.613-7.79 7.806-17.308 11.709-28.554 11.709h-4.333v16.13c0 3.427-1.104 6.3-3.312 8.619-2.208 2.319-5.023 3.478-8.445 3.478-3.421 0-6.289-1.159-8.604-3.478-2.315-2.319-3.472-5.192-3.472-8.619v-16.13H395.714v16.13c0 3.433-1.157 6.307-3.472 8.623-2.315 2.316-5.183 3.474-8.604 3.474zm-16.4-52.42h257.524c4.561 0 8.383-1.546 11.468-4.637 3.085-3.092 4.628-6.922 4.628-11.492v-80.648c0-4.57-1.543-8.401-4.628-11.492-3.085-3.092-6.907-4.637-11.468-4.637-4.56 0-8.383 1.545-11.468 4.637-3.085 3.091-4.627 6.922-4.627 11.492v60.485H383.333v-60.485c0-4.57-1.542-8.401-4.627-11.492-3.085-3.092-6.908-4.637-11.468-4.637s-8.383 1.545-11.468 4.637c-3.085 3.091-4.627 6.922-4.627 11.492v80.648c0 4.57 1.542 8.4 4.627 11.492 3.085 3.091 6.908 4.637 11.468 4.637zm40.238-60.485h177.049v-36.292c0-6.535 1.475-12.5 4.426-17.897 2.95-5.397 6.84-9.916 11.669-13.555V48.323c0-4.57-1.543-8.4-4.628-11.492-3.085-3.092-6.907-4.638-11.467-4.638H407.476c-4.56 0-8.383 1.546-11.468 4.638-3.085 3.091-4.627 6.922-4.627 11.492V86.35c4.828 3.64 8.718 8.158 11.669 13.555 2.95 5.397 4.426 11.362 4.426 17.897v36.292z" fill="#fff"/></svg>
